X:2
T: Opera Reel
I: Opera ReelR-52Dreel
M: C|
R: reel
K: D
(3A,B,C |: "D"D2D2 FEFA| DCDF "A"EDCA,| "D"D2D2 FEFA|1           "G"BdAF "A"EDCE :|2 "G"BdAF "A"(3EEE |]
|:(3ABc| "D"dcec dAFA| Adcd "A"egfe| "D"dcec dAFA| "G"BdAF "A"E2 :|
|:fg| "D"afaf "A"gfge| "D"fafe "A"dcBA| "D"afaf "G"gfge| "A"faec "D" d2 :|
|:(3ABc| "D"defd "A"efge| "D"faec "A"dcBA| "D"defd "G"efge| "A"faec "D"d2 :|
%%text  Roaring Jelly  R-52
%%text 10/27/99
